X:1
T: Lady Doll Sinclair
C:
R:Reel
Q: 232
K:A
M:4/4
L:1/8
|:B|A1/2A1/2A cA dB cA|B=g gd B=G GB|A1/2A1/2A cA dB cA|Ba ae cA AB|
A1/2A1/2A cA dB cA|B=g gd B=G GB|A1/2A1/2A cA dB cA|Ba ae cA Ag|
a1/2g1/2f1/2e1/2 ca ea ca|B=g gd B=G G^g|a1/2g1/2f1/2e1/2 ca ea ca|Ba ae cA Ag|
a1/2g1/2f1/2e1/2 ca ea ca|B=g gd B=G G^g|af ge fd ec|Ba ae cA A:|
